X:614
T: WOLLT IHR HOEREN EIN NEU GEDICHT
N: E1957
O: Europa, Mitteleuropa, Deutschland
R: geistlich, Fest - Lied, Biblischer Stoff, Passion
M: 3/4
L: 1/8
K: F
F2 | F4c2 | A4F2 | G2B2d2 | c4B2 | c4
B2 | A4B2 | c4c2 | c4A2 | G4
F2 | A4B2 | c4c2 | B4A2 | G4
F2 | A4B2 | c4B2 | A2GFG2 | F4

